justvector/newsvine.svg

<?xml version="1.0" encoding="iso-8859-1"?>
<!-- Generator: Adobe Illustrator 15.0.0, SVG Export Plug-In . SVG Version: 6.00 Build 0)  -->
<!DOCTYPE svg PUBLIC "-//W3C//DTD SVG 1.1//EN" "http://www.w3.org/Graphics/SVG/1.1/DTD/svg11.dtd">
<svg version="1.1" id="Icons" xmlns="http://www.w3.org/2000/svg" xmlns:xlink="http://www.w3.org/1999/xlink" x="0px" y="0px"
	 width="100px" height="100px" viewBox="0 0 100 100" style="enable-background:new 0 0 100 100;" xml:space="preserve">
<path id="Newsvine" d="M53.104,63.117l10.78-7.814c0.986,0.623,2.145,0.99,3.396,0.99c3.516,0,6.37-2.854,6.37-6.381
	c0-3.52-2.854-6.374-6.37-6.374c-3.522,0-6.378,2.854-6.378,6.374c0,0.266,0.021,0.525,0.05,0.789l-7.849,5.686V38.648l10.861-7.872
	c0.974,0.589,2.099,0.937,3.315,0.937c3.516,0,6.37-2.854,6.37-6.373s-2.854-6.379-6.37-6.379c-3.522,0-6.378,2.859-6.378,6.379
	c0,0.295,0.023,0.594,0.069,0.879l-7.868,5.702V5h-6.209v14.21l-7.91-5.726c0.07-0.383,0.112-0.771,0.112-1.178
	c0-3.519-2.859-6.373-6.379-6.373c-3.519,0-6.37,2.854-6.37,6.373c0,3.52,2.852,6.378,6.37,6.378c1.113,0,2.157-0.288,3.067-0.786
	l11.109,8.041v17.739l-7.897-5.718c0.062-0.348,0.1-0.709,0.1-1.07c0-3.53-2.859-6.381-6.379-6.381c-3.519,0-6.37,2.851-6.37,6.381
	c0,3.516,2.852,6.37,6.37,6.37c1.148,0,2.222-0.306,3.15-0.833l11.026,7.98v18.917l-7.891-5.716
	c0.055-0.344,0.093-0.691,0.093-1.048c0-3.52-2.859-6.376-6.379-6.376c-3.519,0-6.37,2.856-6.37,6.376
	c0,3.519,2.852,6.374,6.37,6.374c1.158,0,2.238-0.315,3.171-0.85l11.006,7.965V95h0.514h5.451h0.244v-6.244l10.761-7.787
	c0.986,0.623,2.153,0.995,3.416,0.995c3.516,0,6.37-2.854,6.37-6.375c0-3.52-2.854-6.371-6.37-6.371
	c-3.522,0-6.378,2.852-6.378,6.371c0,0.258,0.021,0.508,0.046,0.757l-7.845,5.687V63.117z"/>
</svg>

<?xml version="1.0" encoding="UTF-8" standalone="no"?>
<!DOCTYPE svg PUBLIC "-//W3C//DTD SVG 1.1//EN" "http://www.w3.org/Graphics/SVG/1.1/DTD/svg11.dtd">
<svg width="100%" height="100%" viewBox="0 0 100 100" version="1.1" xmlns="http://www.w3.org/2000/svg" xmlns:xlink="http://www.w3.org/1999/xlink" xml:space="preserve" xmlns:serif="http://www.serif.com/" style="fill-rule:evenodd;clip-rule:evenodd;stroke-linejoin:round;stroke-miterlimit:2;">
    <path id="Newsvine" d="M53.104,63.117L63.884,55.303C64.87,55.926 66.029,56.293 67.28,56.293C70.796,56.293 73.65,53.439 73.65,49.912C73.65,46.392 70.796,43.538 67.28,43.538C63.758,43.538 60.902,46.392 60.902,49.912C60.902,50.178 53.103,56.387 53.103,56.387L53.103,38.648L63.964,30.776C64.938,31.365 66.063,31.713 67.279,31.713C70.795,31.713 73.649,28.859 73.649,25.34C73.649,21.821 70.795,18.961 67.279,18.961C63.757,18.961 60.901,21.82 60.901,25.34C60.901,25.635 53.102,31.921 53.102,31.921C53.102,31.921 39.095,12.713 39.095,12.306C39.095,8.787 36.236,5.933 32.716,5.933C29.197,5.933 26.346,8.787 26.346,12.306C26.346,15.826 29.198,18.684 32.716,18.684C33.829,18.684 34.873,18.396 35.783,17.898L46.892,35.939L46.892,43.678C46.892,43.678 39.095,37.251 39.095,36.89C39.095,33.36 36.236,30.509 32.716,30.509C29.197,30.509 26.346,33.36 26.346,36.89C26.346,40.406 29.198,43.26 32.716,43.26C33.864,43.26 34.938,42.954 35.866,42.427L46.892,50.407L46.892,69.324C46.892,69.324 39.094,62.917 39.094,62.56C39.094,59.04 36.235,56.184 32.715,56.184C29.196,56.184 26.345,59.04 26.345,62.56C26.345,66.079 29.197,68.934 32.715,68.934C33.873,68.934 34.953,68.619 35.886,68.084L46.892,76.049L46.892,95L63.862,80.969C64.848,81.592 66.015,81.964 67.278,81.964C70.794,81.964 73.648,79.11 73.648,75.589C73.648,72.069 70.794,69.218 67.278,69.218C63.756,69.218 60.9,72.07 60.9,75.589C60.9,75.847 53.101,82.033 53.101,82.033L53.101,63.117L53.104,63.117Z" style="fill-rule:nonzero;"/>
</svg>
